img/instagram_icon.svg

<svg height="30" viewBox="0 0 30 30" width="30" xmlns="http://www.w3.org/2000/svg"><g fill="#fff"><path d="m15.0033333 29.867c-8.19916663 0-14.8698333-6.6688333-14.8698333-14.8658333 0-8.19833337 6.6705-14.8681667 14.8698333-14.8681667 8.1955 0 14.8633334 6.66983333 14.8633334 14.8681667 0 8.197-6.6678334 14.8658333-14.8633334 14.8658333zm0-28.40066667c-7.46399997 0-13.53649997 6.07183334-13.53649997 13.53483337 0 7.4618333 6.0725 13.5325 13.53649997 13.5325 7.4605 0 13.53-6.0708334 13.53-13.5325 0-7.46300003-6.0696666-13.53483337-13.53-13.53483337z"/><path d="m21.7411667 15.0366667c-.0106667 0-.0221667 0-.0341667-.0025 0-.646.0146667-1.292-.0026667-1.937-.0163333-.6216667-.0406666-1.2443334-.1031666-1.8616667-.1403334-1.3845-.9645-2.34033333-2.3271667-2.59966667-.7183333-.1345-1.4618333-.156-2.1946667-.16883333-1.387-.0245-2.7758333-.02333333-4.1646666-.0025-.6906667.01033333-1.3886667.038-2.072.14316667-1.18433337.18783333-1.99400003.86266666-2.32083337 2.03666663-.104.3763334-.16583333.7758334-.17466666 1.1648334-.03683334 1.4845-.05766667 2.9698333-.0535 4.4521666.00433333.941.02433333 1.8886667.10833333 2.8273334.12316667 1.409.97916667 2.3715 2.3666667 2.621.7118333.1285 1.4496666.1475 2.1785.1591666 1.3691666.0228334 2.7381666.0173334 4.111.002.6246666-.0086666 1.2536666-.0423333 1.877-.1035.5833333-.059 1.1311666-.2483333 1.5991666-.6191666.7611667-.6063334 1.0555-1.441 1.1005-2.3671667.0608334-1.2455.0721667-2.4963333.1063334-3.7443333zm-6.7281667-8.07600003c1.1008333.01766666 2.202.0295 3.3015.05983333.9556667.027 1.8811667.1965 2.71.703 1.0878333.66566667 1.7541667 1.64283333 1.9686667 2.8871667.1276666.744.1705 1.5063333.1845 2.2643333.0243333 1.6263333.0145588 3.2556667-.0035 4.8811667-.0105.8535-.0388334 1.71-.3218334 2.5321666-.5485 1.5908334-1.6658333 2.5605-3.3048333 2.8708334-.7395.1416666-1.5083333.1736666-2.2638333.1848333-1.6216667.0255-3.243.0143333-4.865-.0013333-.8531667-.0101667-1.7096667-.0385-2.53283337-.3193334-1.59433333-.5451666-2.56166666-1.6626666-2.87816666-3.3015-.14233334-.7386666-.174-1.5058333-.18533334-2.2631666-.02516666-1.625-.01509185-3.255.0025-4.8818334.009-.8523333.0375-1.7088333.321-2.533.55-1.59016663 1.66666667-2.55849997 3.30483337-2.8693333.741-.13883333 1.509-.15616667 2.2671666-.18616667.7621667-.02983333 1.53-.00716666 2.2948334-.00716666z"/><path d="m14.9983333 17.8953366c1.4951667.0023301 2.7303372-1.2286699 2.7303372-2.7256699.0024962-1.4965-1.2320038-2.7305-2.7278372-2.7305-1.4983333 0-2.7278333 1.228-2.7295017 2.7261666-.0016649 1.4965 1.2286684 2.7286667 2.7270017 2.7300033m4.2066667-2.7251699c0 2.3353333-1.8721667 4.2031666-4.209 4.2031666-2.3485-.0013333-4.2026667-1.8733333-4.2010011-4.2466666 0-2.3096667 1.8925011-4.1676667 4.2448344-4.1640055 2.2995 0 4.1651667 1.8875055 4.1651667 4.2075055m1.1498333-4.3788334c0 .5508334-.442.9973334-.984.9956714-.5451666-.0050047-.9935-.4565047-.99035-.9966714.00635-.5396666.44285-.9753333.9825167-.9765125.5596667-.00265413.9895.4206792.9918333.9775125"/></g></svg>

<svg xmlns="http://www.w3.org/2000/svg" width="30" height="30" viewBox="0 0 30 30">
  <g fill="#FFF">
    <path d="M15.0033333,29.867 C6.80416667,29.867 0.1335,23.1981667 0.1335,15.0011667 C0.1335,6.80283333 6.804,0.133 15.0033333,0.133 C23.1988333,0.133 29.8666667,6.80283333 29.8666667,15.0011667 C29.8666667,23.1981667 23.1988333,29.867 15.0033333,29.867 Z M15.0033333,1.46633333 C7.53933333,1.46633333 1.46683333,7.53816667 1.46683333,15.0011667 C1.46683333,22.463 7.53933333,28.5336667 15.0033333,28.5336667 C22.4638333,28.5336667 28.5333333,22.4628333 28.5333333,15.0011667 C28.5333333,7.53816667 22.4636667,1.46633333 15.0033333,1.46633333 Z"/>
    <path d="M21.7411667,15.0366667 C21.7305,15.0366667 21.719,15.0366667 21.707,15.0341667 C21.707,14.3881667 21.7216667,13.7421667 21.7043333,13.0971667 C21.688,12.4755 21.6636667,11.8528333 21.6011667,11.2355 C21.4608333,9.851 20.6366667,8.89516667 19.274,8.63583333 C18.5556667,8.50133333 17.8121667,8.47983333 17.0793333,8.467 C15.6923333,8.4425 14.3035,8.44366667 12.9146667,8.4645 C12.224,8.47483333 11.526,8.5025 10.8426667,8.60766667 C9.65833333,8.7955 8.84866667,9.47033333 8.52183333,10.6443333 C8.41783333,11.0206667 8.356,11.4201667 8.34716667,11.8091667 C8.31033333,13.2936667 8.2895,14.779 8.29366667,16.2613333 C8.298,17.2023333 8.318,18.15 8.402,19.0886667 C8.52516667,20.4976667 9.38116667,21.4601667 10.7686667,21.7096667 C11.4805,21.8381667 12.2183333,21.8571667 12.9471667,21.8688333 C14.3163333,21.8916667 15.6853333,21.8861667 17.0581667,21.8708333 C17.6828333,21.8621667 18.3118333,21.8285 18.9351667,21.7673333 C19.5185,21.7083333 20.0663333,21.519 20.5343333,21.1481667 C21.2955,20.5418333 21.5898333,19.7071667 21.6348333,18.781 C21.6956667,17.5355 21.707,16.2846667 21.7411667,15.0366667 L21.7411667,15.0366667 Z M15.013,6.96066667 C16.1138333,6.97833333 17.215,6.99016667 18.3145,7.0205 C19.2701667,7.0475 20.1956667,7.217 21.0245,7.7235 C22.1123333,8.38916667 22.7786667,9.36633333 22.9931667,10.6106667 C23.1208333,11.3546667 23.1636667,12.117 23.1776667,12.875 C23.202,14.5013333 23.1922255,16.1306667 23.1741667,17.7561667 C23.1636667,18.6096667 23.1353333,19.4661667 22.8523333,20.2883333 C22.3038333,21.8791667 21.1865,22.8488333 19.5475,23.1591667 C18.808,23.3008333 18.0391667,23.3328333 17.2836667,23.344 C15.662,23.3695 14.0406667,23.3583333 12.4186667,23.3426667 C11.5655,23.3325 10.709,23.3041667 9.88583333,23.0233333 C8.2915,22.4781667 7.32416667,21.3606667 7.00766667,19.7218333 C6.86533333,18.9831667 6.83366667,18.216 6.82233333,17.4586667 C6.79716667,15.8336667 6.80724148,14.2036667 6.82483333,12.5768333 C6.83383333,11.7245 6.86233333,10.868 7.14583333,10.0438333 C7.69583333,8.45366667 8.8125,7.48533333 10.4506667,7.1745 C11.1916667,7.03566667 11.9596667,7.01833333 12.7178333,6.98833333 C13.48,6.9585 14.2478333,6.98116667 15.0126667,6.98116667 L15.013,6.96066667 L15.013,6.96066667 Z"/>
    <path d="M14.9983333 17.8953366C16.4935 17.8976667 17.7286705 16.6666667 17.7286705 15.1696667 17.7311667 13.6731667 16.4966667 12.4391667 15.0008333 12.4391667 13.5025 12.4391667 12.273 13.6671667 12.2713316 15.1653333 12.2696667 16.6618333 13.5 17.894 14.9983333 17.8953366M19.205 15.1701667C19.205 17.5055 17.3328333 19.3733333 14.996 19.3733333 12.6475 19.372 10.7933333 17.5 10.7949989 15.1266667 10.7949989 12.817 12.6875 10.959 15.0398333 10.9626612 17.3393333 10.9626612 19.205 12.8501667 19.205 15.1701667M20.3548333 10.7913333C20.3548333 11.3421667 19.9128333 11.7886667 19.3708333 11.7870047 18.8256667 11.782 18.3773333 11.3305 18.3804833 10.7903333 18.3868333 10.2506667 18.8233333 9.815 19.363 9.8138208 19.9226667 9.81116667 20.3525 10.2345 20.3548333 10.7913333"/>
  </g>
</svg>
